public/icons/tokens/gusd.svg

<svg width="256" height="256" viewBox="0 0 256 256" fill="none" xmlns="http://www.w3.org/2000/svg">
  <g clip-path="url(#clip0_2_3667)">
    <path d="M128 256C198.692 256 256 198.692 256 128C256 57.3075 198.692 0 128 0C57.3075 0 0 57.3075 0 128C0 198.692 57.3075 256 128 256Z" fill="white"/>
    <path d="M152.901 48.902C139.329 48.9785 126.256 54.0303 116.159 63.1003C106.062 72.1703 99.643 84.6286 98.117 98.115C87.78 99.2268 77.9684 103.24 69.8154 109.692C61.6625 116.143 55.5008 124.769 52.0421 134.573C48.5834 144.378 47.9688 154.961 50.2693 165.1C52.5698 175.238 57.6915 184.52 65.0428 191.872C72.3942 199.223 81.6753 204.345 91.8141 206.646C101.953 208.947 112.536 208.333 122.34 204.875C132.145 201.417 140.771 195.256 147.223 187.103C153.675 178.95 157.689 169.139 158.801 158.802C172.832 157.303 185.754 150.477 194.902 139.733C204.051 128.989 208.729 115.145 207.972 101.054C207.216 86.9628 201.082 73.699 190.836 63.996C180.59 54.2931 167.012 48.8906 152.901 48.902ZM195.095 110.243C193.716 119.288 189.483 127.656 183.014 134.126C176.544 140.595 168.176 144.828 159.131 146.207V110.243H195.095ZM61.822 146.67C63.2004 137.624 67.4334 129.255 73.9035 122.785C80.3736 116.314 88.7421 112.081 97.788 110.702V146.67H61.822ZM146.213 159.127C144.719 169.251 139.635 178.5 131.889 185.187C124.143 191.874 114.25 195.553 104.017 195.553C93.7837 195.553 83.8914 191.874 76.1452 185.187C68.3989 178.5 63.315 169.251 61.821 159.127H146.213ZM146.673 110.243V146.67H110.244V110.243H146.673ZM195.097 97.786H110.704C112.198 87.6623 117.282 78.4132 125.028 71.7262C132.774 65.0392 142.667 61.36 152.9 61.36C163.133 61.36 173.026 65.0392 180.772 71.7262C188.518 78.4132 193.602 87.6623 195.096 97.786H195.097Z" fill="#26DDF9"/>
    <path d="M128 256C119.335 256.002 110.691 255.131 102.2 253.4C85.8273 250.047 70.2752 243.502 56.431 234.14C35.8518 220.248 19.7429 200.686 10.056 177.824C6.784 170.082 4.28648 162.034 2.60002 153.8C-0.867326 136.777 -0.867326 119.23 2.60002 102.207C5.95289 85.8329 12.4974 70.2794 21.86 56.434C35.7524 35.8546 55.3148 19.7457 78.177 10.059C85.9189 6.78604 93.9658 4.28752 102.2 2.60002C119.223 -0.867326 136.77 -0.867326 153.793 2.60002C170.166 5.95327 185.719 12.4978 199.563 21.86C220.142 35.7522 236.251 55.3142 245.938 78.176C249.212 85.9181 251.712 93.9654 253.4 102.2C256.867 119.223 256.867 136.77 253.4 153.793C250.047 170.166 243.502 185.719 234.14 199.563C220.248 220.142 200.686 236.251 177.824 245.938C170.082 249.212 162.035 251.712 153.8 253.4C145.309 255.131 136.666 256.002 128 256ZM128 4.00002C119.607 3.99798 111.234 4.84191 103.01 6.51902C87.1485 9.76735 72.0819 16.1073 58.67 25.177C38.7338 38.6354 23.1282 57.5864 13.744 79.734C10.5734 87.2352 8.15328 95.0319 6.51902 103.01C3.15999 119.501 3.15999 136.5 6.51902 152.991C9.76748 168.852 16.1074 183.918 25.177 197.33C38.6351 217.266 57.5857 232.872 79.733 242.256C87.2342 245.427 95.0309 247.847 103.009 249.481C119.5 252.84 136.499 252.84 152.99 249.481C168.851 246.233 183.917 239.893 197.329 230.823C217.265 217.365 232.871 198.414 242.255 176.267C245.426 168.766 247.846 160.969 249.48 152.991C252.839 136.5 252.839 119.501 249.48 103.01C246.232 87.1486 239.892 72.082 230.823 58.67C217.365 38.7339 198.414 23.1283 176.267 13.744C168.766 10.5733 160.968 8.1532 152.99 6.51902C144.766 4.84193 136.394 3.998 128 4.00002Z" fill="#26DDF9"/>
  </g>
  <defs>
    <clipPath id="clip0_2_3667">
      <rect width="256" height="256" fill="white"/>
    </clipPath>
  </defs>
</svg>

<svg width="256" height="256" fill="none" xmlns="http://www.w3.org/2000/svg"><g clip-path="url(#a)"><path d="M128 256c70.692 0 128-57.308 128-128C256 57.308 198.692 0 128 0 57.308 0 0 57.307 0 128c0 70.692 57.307 128 128 128Z" fill="#fff"/><path d="M152.901 48.902a55.45 55.45 0 0 0-54.784 49.213 55.102 55.102 0 0 0-46.075 36.458 55.11 55.11 0 0 0 39.772 72.073 55.107 55.107 0 0 0 66.987-47.844 55.104 55.104 0 0 0 49.171-57.748 55.105 55.105 0 0 0-55.071-52.152Zm42.194 61.341a42.93 42.93 0 0 1-12.081 23.883 42.93 42.93 0 0 1-23.883 12.081v-35.964h35.964ZM61.822 146.67a42.922 42.922 0 0 1 35.966-35.968v35.968H61.822Zm84.391 12.457a42.654 42.654 0 0 1-84.392 0h84.392Zm.46-48.884v36.427h-36.429v-36.427h36.429Zm48.424-12.457h-84.393a42.654 42.654 0 0 1 84.392 0h.001Z" fill="#26DDF9"/><path d="M128 256a129.012 129.012 0 0 1-25.8-2.6 127.297 127.297 0 0 1-45.769-19.26 128.372 128.372 0 0 1-46.375-56.316A127.36 127.36 0 0 1 2.6 153.8a129.248 129.248 0 0 1 0-51.593 127.3 127.3 0 0 1 19.26-45.773 128.373 128.373 0 0 1 56.317-46.375A127.357 127.357 0 0 1 102.2 2.6a129.248 129.248 0 0 1 51.593 0 127.298 127.298 0 0 1 45.77 19.26 128.376 128.376 0 0 1 46.375 56.316A127.332 127.332 0 0 1 253.4 102.2a129.26 129.26 0 0 1 0 51.593 127.297 127.297 0 0 1-19.26 45.77 128.374 128.374 0 0 1-56.316 46.375A127.321 127.321 0 0 1 153.8 253.4 129.005 129.005 0 0 1 128 256Zm0-252a124.918 124.918 0 0 0-24.99 2.519 123.32 123.32 0 0 0-44.34 18.658 124.365 124.365 0 0 0-44.926 54.557 123.38 123.38 0 0 0-7.225 23.276 125.21 125.21 0 0 0 0 49.981 123.325 123.325 0 0 0 18.658 44.339 124.362 124.362 0 0 0 54.556 44.926 123.332 123.332 0 0 0 23.276 7.225 125.21 125.21 0 0 0 49.981 0 123.31 123.31 0 0 0 44.339-18.658 124.364 124.364 0 0 0 44.926-54.556 123.33 123.33 0 0 0 7.225-23.276 125.21 125.21 0 0 0 0-49.981 123.327 123.327 0 0 0-18.657-44.34 124.365 124.365 0 0 0-54.556-44.926 123.374 123.374 0 0 0-23.277-7.225A124.914 124.914 0 0 0 128 4Z" fill="#26DDF9"/></g><defs><clipPath id="a"><path fill="#fff" d="M0 0h256v256H0z"/></clipPath></defs></svg>
